src/cmd/lc_tabdialog.svg

<svg viewBox="0 0 24 24" xmlns="http://www.w3.org/2000/svg"><path d="m11 18c-.552285 0-1 .44772-1 1s.447715 1 1 1 1-.44772 1-1-.447715-1-1-1zm4 0c-.552285 0-1 .44772-1 1s.447715 1 1 1 1-.44772 1-1-.447715-1-1-1zm4 0c-.552285 0-1 .447715-1 1s.447715 1 1 1 1-.447715 1-1-.447715-1-1-1z" fill="#e95420"/><path d="m4 4v1h16v-1zm3 4v6.09375l-2.28125-2.21875-.71875.71875 3.28125 3.1875.21875.21875.21875-.21875 3.28125-3.1875-.71875-.71875-2.28125 2.21875v-6.09375zm9.5 0-.21875.21875-3.28125 3.1875.71875.71875 2.28125-2.21875v6.09375h1v-6.09375l2.28125 2.21875.71875-.71875-3.28125-3.1875zm-12.5 11v1h5v-1z" fill="#232629"/></svg>

<?xml version="1.0" encoding="UTF-8" standalone="no"?>
<svg
   xmlns:dc="http://purl.org/dc/elements/1.1/"
   xmlns:cc="http://creativecommons.org/ns#"
   xmlns:rdf="http://www.w3.org/1999/02/22-rdf-syntax-ns#"
   xmlns:svg="http://www.w3.org/2000/svg"
   xmlns="http://www.w3.org/2000/svg"
   xmlns:sodipodi="http://sodipodi.sourceforge.net/DTD/sodipodi-0.dtd"
   xmlns:inkscape="http://www.inkscape.org/namespaces/inkscape"
   viewBox="0 0 24 24"
   version="1.1"
   id="svg6"
   sodipodi:docname="lc_tabdialog.svg"
   inkscape:version="0.92.4 (5da689c313, 2019-01-14)">
  <metadata
     id="metadata12">
    <rdf:RDF>
      <cc:Work
         rdf:about="">
        <dc:format>image/svg+xml</dc:format>
        <dc:type
           rdf:resource="http://purl.org/dc/dcmitype/StillImage" />
      </cc:Work>
    </rdf:RDF>
  </metadata>
  <defs
     id="defs10" />
  <sodipodi:namedview
     pagecolor="#ffffff"
     bordercolor="#666666"
     borderopacity="1"
     objecttolerance="10"
     gridtolerance="10"
     guidetolerance="10"
     inkscape:pageopacity="0"
     inkscape:pageshadow="2"
     inkscape:window-width="1920"
     inkscape:window-height="1011"
     id="namedview8"
     showgrid="true"
     inkscape:zoom="27.812867"
     inkscape:cx="3.853444"
     inkscape:cy="7.9062881"
     inkscape:window-x="0"
     inkscape:window-y="32"
     inkscape:window-maximized="1"
     inkscape:current-layer="svg6">
    <inkscape:grid
       type="xygrid"
       id="grid822" />
  </sodipodi:namedview>
  <path
     id="path4"
     style="stroke-width:1.78885436;fill:#232629;fill-opacity:1"
     d="m 4,19 v 1 H 20 V 19 Z M 16.5,8 16.28125,8.21875 13,11.40625 13.71875,12.125 16,9.90625 V 16 h 1 V 9.90625 L 19.28125,12.125 20,11.40625 16.71875,8.21875 Z M 7,8 v 6.09375 L 4.71875,11.875 4,12.59375 7.28125,15.78125 7.5,16 7.71875,15.78125 11,12.59375 10.28125,11.875 8,14.09375 V 8 Z M 4,4 V 5 H 20 V 4 Z" />
</svg>
